X:1
T:He’s the Prince of Peacemakers
T:J. E. Clines
T:He’s the Prince of Peacemakers
T:Public Domain
T:Public Domain
T:Public Domain
C:J. E. Clines
Z:Public Domain
%%score ( 1 2 ) ( 3 4 )
L:1/8
M:6/8
K:C
V:1 treble 
V:2 treble 
V:3 bass 
V:4 bass 
V:1
 [CE]/[CE]/ | [CE][CE]>[DF] [EG]2 [EG]/[EG]/ | [FA]>[GB][Ac] [EG]2 [EG]/[EG]/ | %3
w: 1.~He hath|spok- en, “Be still,” the Re-|buk- er of seas; The com-|
w: 2.~He hath|quick- ened my soul by a|life from a- bove, It was|
w: 3.~He’s a|won- der- ful Je- sus, this|Sav- ior of mine, He’s the|
w: 4.~I will|love Him and serve Him, from|now till I die, For His|
 [EG][DF]>[DF] [CE]2 [EG]/[Ec]/ | [DB][DB][CA] [B,G]2 [EG]/[DF]/ | %5
w: mand was for me, and my|heart is at ease; He hath|
w: done by the Spir- it, its|es- sence is love; He hath|
w: great Son of God, a Re-|deem- er di- vine. He’s my|
w: love fills my heart, and His|beau- ty my eye. He’s the|
 .[CE].[CE].[B,E] .[CE].[CE].[CE] | [CF]>[CF][CF] [FA]2 [DG]/[DG]/ | [Gc]>[Gc][GB] [FA][FA][DF] | %8
w: hushed in- to si- lence the|waves and the winds, By ap-|ply- ing His blood, and re-|
w: par- doned and washed me as|white as the snow, And my|heart with His love does this|
w: strength, and my wis- dom, my|life and my Lord, And en-|throned in my heart to be|
w: fair- est and dear- est of|all to my soul, And our|lives shall be one, while e-|
 [CE][CE][B,D] C2 ||"^Refrain" G/G/ | [Ec]>[Fd][Ge] [Fd][Ec][DB] | [CA]>[FA][FA] [EG]2 [EG]/[EG]/ | %12
w: mov- ing my sins.||||
w: mo- ment o’er- flow.||||
w: loved and a- dored.|the Prince|mak- ers, all glo- ry to|God, To re- deem me, and|
w: ter- ni- ties roll.||||
 [EG][DF]>[DF] [DF][CE]>[CE] | D[DE](D/C/) [B,G]2 [EG]/[EG]/ | [Ec][Gc][Gd] [Ge]2 [Ee]/[Ed]/ | %15
w: |||
w: |||
w: cleanse me, He shed his own|blood; My a- * dopt- ion is|a child of the King, And|
w: |||
 [Fc]>[Fc][FA] [EG]2 [EG]/[EG]/ | [FA]<[FA][GB] [Gc]<[Gc][Ad] | [Ge][Ge][Fd] [Ec]2 |] %18
w: |||
w: |||
w: for ev- er and ev- er|of Je- sus I’ll sing. *||
w: |||
V:2
 x | x6 | x6 | x6 | x6 | x6 | x6 | x6 | x3 C2 || G/G/ | x6 | x6 | x6 | D^F x4 | x6 | x6 | x6 | %17
w: |||||||||||||||||
w: |||||||||||||||||
w: ||||||||He’s|of peace-||||sealed, I’m||||
 x5 |] %18
w: |
w: |
w: |
V:3
 [C,G,]/[C,G,]/ | [C,G,][C,G,]>[C,G,] [C,C]2 [C,C]/[C,C]/ | [F,C]>[F,C][F,C] [C,C]2 [C,C]/[C,C]/ | %3
 [G,C][G,B,]>[G,,G,] [C,G,]2 [C,G,]/[C,G,]/ | [D,G,][D,G,][D,^F,] [G,,G,]2 [G,,G,]/[G,,G,]/ | %5
 .[C,G,].[C,G,].[B,,^G,] .[A,,A,].A,.[G,_B,] | [F,A,]>[F,A,][F,A,] [F,C]2 [F,B,]/[F,B,]/ | %7
 [E,C]>[E,C][E,C] [F,C][F,C][F,A,] | G,G,[G,,F,] [C,E,]2 || G,/G,/ | %10
 [C,G,]>[C,G,][C,G,] [C,G,][C,G,][E,^G,] | [F,A,]>[F,C][F,C] [C,C]2 [C,C]/[C,C]/ | %12
 [G,C][G,B,]>[G,,G,] [C,G,][C,G,]>[C,G,] | [D,B,][D,B,][D,A,] [G,,G,]2 G,/G,/ | %14
 [C,G,][E,G,][G,B,] [C,C]2 [C,G,]/[C,G,]/ | [F,A,]>[F,A,][F,C] [C,C]2 [C,C]/[C,C]/ | %16
 [F,C]<[F,C][F,D] [E,C]<[E,C][F,C] | [G,C][G,C][G,,G,B,] [C,G,]2 |] %18
V:4
 x | x6 | x6 | x6 | x6 | x4 A, x | x6 | x6 | G,G, x3 || G,/G,/ | x6 | x6 | x6 | x5 G,/G,/ | x6 | %15
 x6 | x6 | x5 |] %18

